X: 1
T: Blue Shutters, The
M: 4/4
L: 1/8
R: reel
K: Bmin
fBde ~f3a|bff/f/f afea|fBdf ~g2fd|eAeg fage:|
dAFA ~G3B|Aee/e/e {a}ffef|dafd ~g3b|1 aff/f/f egfe:|2 aff/f/f e2ag||
